flaticon/medical/nose.svg

<svg xmlns="http://www.w3.org/2000/svg" width="32" height="32" viewBox="0 0 24 24">
    <path d="M 13.546875 0.101562 C 13.546875 0.101562 13.542969 0.101562 13.542969 0.101562 C 13.535156 0.101562 13.527344 0.101562 13.519531 0.101562 C 13.285156 0.0703125 13.046875 0.046875 12.808594 0.03125 C 12.785156 0.0273438 12.761719 0.0273438 12.738281 0.0234375 C 12.492188 0.0117188 12.246094 0 12 0 C 5.382812 0 0 5.382812 0 12 C 0 17.605469 3.78125 22.289062 8.988281 23.617188 C 9 23.621094 9.011719 23.621094 9.019531 23.625 C 9.167969 23.664062 9.320312 23.695312 9.46875 23.730469 C 9.539062 23.746094 9.613281 23.757812 9.683594 23.773438 C 9.777344 23.792969 9.871094 23.808594 9.964844 23.824219 C 10.085938 23.84375 10.210938 23.863281 10.335938 23.882812 C 10.382812 23.886719 10.429688 23.894531 10.476562 23.902344 C 10.640625 23.921875 10.808594 23.9375 10.972656 23.953125 C 10.988281 23.953125 11.003906 23.957031 11.019531 23.957031 C 11.210938 23.972656 11.402344 23.984375 11.59375 23.988281 C 11.59375 23.988281 11.59375 23.988281 11.597656 23.988281 C 11.601562 23.992188 11.605469 23.992188 11.609375 23.992188 C 11.738281 23.996094 11.871094 24 12 24 C 18.617188 24 24 18.617188 24 12 C 24 5.90625 19.4375 0.867188 13.546875 0.101562 Z M 12 0.800781 C 12.390625 0.800781 12.792969 0.824219 13.207031 0.867188 L 13.605469 1.90625 C 13.628906 1.960938 15.789062 7.53125 18.351562 11.9375 C 19.140625 13.289062 19.304688 14.453125 18.84375 15.398438 C 18.117188 16.878906 16.007812 17.527344 14.875 17.679688 L 14.761719 17.695312 C 13.515625 17.859375 12.230469 18.027344 11.554688 18.914062 C 11.148438 19.441406 11.011719 20.144531 11.140625 21.066406 C 11.191406 21.4375 11.246094 21.929688 11.234375 22.425781 L 11.21875 23.171875 C 11.214844 23.167969 11.210938 23.167969 11.207031 23.167969 C 11.035156 23.15625 10.867188 23.140625 10.699219 23.121094 C 10.667969 23.117188 10.632812 23.113281 10.601562 23.109375 C 10.464844 23.09375 10.328125 23.074219 10.191406 23.050781 C 10.105469 23.039062 10.019531 23.023438 9.929688 23.003906 C 9.855469 22.992188 9.777344 22.976562 9.699219 22.960938 C 4.820312 21.9375 1.097656 17.730469 0.816406 12.621094 C 0.816406 12.605469 0.816406 12.589844 0.8125 12.570312 C 0.804688 12.382812 0.800781 12.191406 0.800781 12 C 0.800781 5.824219 5.824219 0.800781 12 0.800781 Z M 12.019531 23.199219 L 12.035156 22.441406 C 12.046875 21.890625 11.988281 21.359375 11.929688 20.957031 C 11.835938 20.257812 11.921875 19.75 12.1875 19.398438 C 12.664062 18.777344 13.734375 18.636719 14.867188 18.488281 L 14.980469 18.472656 C 16.582031 18.261719 18.742188 17.421875 19.5625 15.75 C 20.148438 14.550781 19.976562 13.132812 19.042969 11.535156 C 16.511719 7.1875 14.375 1.671875 14.351562 1.617188 L 14.117188 1.003906 C 19.28125 1.996094 23.199219 6.546875 23.199219 12 C 23.199219 18.167969 18.1875 23.191406 12.019531 23.199219 Z M 12.019531 23.199219"/>
    <path d="M 10.492188 16.5625 C 13.609375 15.992188 14.882812 16.019531 15.382812 16.097656 C 15.074219 16.226562 14.582031 16.320312 14.257812 16.171875 C 14.054688 16.082031 13.820312 16.167969 13.726562 16.371094 C 13.636719 16.570312 13.722656 16.808594 13.925781 16.902344 C 14.148438 17.003906 14.40625 17.046875 14.671875 17.046875 C 15.28125 17.046875 15.914062 16.808594 16.214844 16.484375 C 16.425781 16.257812 16.472656 15.984375 16.34375 15.75 C 16.195312 15.484375 15.808594 14.773438 10.347656 15.777344 C 8.058594 16.199219 6.546875 15.984375 5.972656 15.164062 C 5.199219 14.0625 6.144531 11.929688 6.570312 11.203125 C 6.683594 11.011719 6.621094 10.769531 6.429688 10.65625 C 6.238281 10.542969 5.996094 10.609375 5.882812 10.796875 C 5.808594 10.921875 4.09375 13.871094 5.3125 15.621094 C 6.09375 16.738281 7.835938 17.054688 10.492188 16.5625 Z M 10.492188 16.5625"/>
</svg>

<svg xmlns="http://www.w3.org/2000/svg" width="32" height="32" viewBox="0 0 24 24">
    <path d="M13.547.102h-.027a10.68 10.68 0 0 0-.711-.07c-.024-.005-.047-.005-.07-.009C12.491.012 12.245 0 12 0 5.383 0 0 5.383 0 12c0 5.605 3.781 10.29 8.988 11.617.012.004.024.004.032.008.148.04.3.07.449.105.07.016.144.028.215.043.093.02.187.036.28.051l.372.059c.047.004.094.012.14.02.165.019.333.035.497.05.015 0 .03.004.047.004.19.016.382.027.574.031h.004c.004.004.007.004.011.004.13.004.262.008.391.008 6.617 0 12-5.383 12-12C24 5.906 19.437.867 13.547.102zM12 .8c.39 0 .793.023 1.207.066l.398 1.04c.024.054 2.184 5.624 4.747 10.03.789 1.352.953 2.516.492 3.461-.727 1.48-2.836 2.13-3.969 2.282l-.113.015c-1.246.164-2.532.332-3.207 1.22-.407.526-.543 1.23-.414 2.151.05.372.105.864.093 1.36l-.015.746c-.004-.004-.008-.004-.012-.004-.172-.012-.34-.027-.508-.047l-.097-.012a7.4 7.4 0 0 1-.41-.058 3.366 3.366 0 0 1-.262-.047c-.075-.012-.153-.027-.23-.043-4.88-1.023-8.602-5.23-8.884-10.34 0-.016 0-.031-.003-.05A13.747 13.747 0 0 1 .8 12C.8 5.824 5.824.8 12 .8zm.02 22.398l.015-.758a9.12 9.12 0 0 0-.105-1.484c-.094-.7-.008-1.207.258-1.559.476-.62 1.546-.761 2.68-.91l.112-.015c1.602-.211 3.762-1.051 4.582-2.723.586-1.2.415-2.617-.519-4.215-2.531-4.348-4.668-9.863-4.691-9.918l-.235-.613C19.281 1.996 23.2 6.547 23.2 12c0 6.168-5.012 11.191-11.18 11.2zm0 0"/>
    <path d="M10.492 16.563c3.117-.57 4.39-.543 4.89-.465-.308.129-.8.222-1.124.074a.402.402 0 0 0-.332.73c.222.102.48.145.746.145.61 0 1.242-.238 1.543-.563.21-.226.258-.5.129-.734-.149-.266-.535-.977-5.996.027-2.29.422-3.801.207-4.375-.613-.774-1.101.172-3.234.597-3.96a.4.4 0 0 0-.688-.406c-.073.124-1.788 3.073-.57 4.823.782 1.117 2.524 1.434 5.18.941zm0 0"/>
</svg>
